!!!RNB: mm.239-40, T.: [A]- before the last tone (=correspond to the rest)
!!!COM: Gaspar van Weerbeke
!!!CDT: ~1450-~1517
!!!OPR: Missa Et trop penser
!!!OTL: Credo
!!!OMV: 3
!!!AGN: Mass
!!!SCT: Gas0202c
!!!SCA: Gas0202c
!!!voices: 4
**kern	**text	**kern	**text	**kern	**text	**kern	**text
*part4	*part4	*part3	*part3	*part2	*part2	*part1	*part1
*staff4	*staff4	*staff3	*staff3	*staff2	*staff2	*staff1	*staff1
*I"Bassus	*	*I"Tenor	*	*I"Altus	*	*I"Superius	*
*I'B	*	*I'T	*	*I'A	*	*I'S	*
*>[A,B,C]	*>[A,B,C]	*>[A,B,C]	*>[A,B,C]	*>[A,B,C]	*>[A,B,C]	*>[A,B,C]	*>[A,B,C]
*>Patrem[A]	*>Patrem[A]	*>Patrem[A]	*>Patrem[A]	*>Patrem[A]	*>Patrem[A]	*>Patrem[A]	*>Patrem[A]
*>EtIncarnatus[B]	*>EtIncarnatus[B]	*>EtIncarnatus[B]	*>EtIncarnatus[B]	*>EtIncarnatus[B]	*>EtIncarnatus[B]	*>EtIncarnatus[B]	*>EtIncarnatus[B]
*>EtIterum[C]	*>EtIterum[C]	*>EtIterum[C]	*>EtIterum[C]	*>EtIterum[C]	*>EtIterum[C]	*>EtIterum[C]	*>EtIterum[C]
*>A	*>A	*>A	*>A	*>A	*>A	*>A	*>A
*clefF4	*	*clefGv2	*	*clefGv2	*	*clefG2	*
*k[b-]	*	*k[b-]	*	*k[b-]	*	*k[b-]	*
*M3/2	*	*M3/2	*	*M3/2	*	*M3/2	*
*met(O)	*	*met(O)	*	*met(O)	*	*met(O)	*
!!section: Patrem
=1	=1	=1	=1	=1	=1	=1	=1
1.r	.	1.r	.	1G	Pa-	2.g	Pa-
.	.	.	.	.	.	2b-y	-trem
.	.	.	.	2G	-trem	.	.
.	.	.	.	.	.	8aL	.
.	.	.	.	.	.	8gJ	.
=2	=2	=2	=2	=2	=2	=2	=2
1.r	.	1.r	.	2d	om-	4f	.
.	.	.	.	.	.	4b-y	om-
.	.	.	.	4d	-ni-	4a	-ni-
.	.	.	.	4e	-pot-	4g	-pot-
.	.	.	.	2f	-en-	2a	-en-
=3	=3	=3	=3	=3	=3	=3	=3
1.r	.	1.r	.	4e	-tem,	4g	-tem,
.	.	.	.	4.g	fa-	4.b-y	fa-
.	.	.	.	8f	.	8a	.
.	.	.	.	2e	.	2g	.
.	.	.	.	[4d	-cto-	4f	.
=4	=4	=4	=4	=4	=4	=4	=4
1.r	.	1.r	.	4d]	.	2e	-cto-
.	.	.	.	4c#i	.	.	.
.	.	.	.	1d	-rem	4d	-rem
.	.	.	.	.	.	4.B-y	ce-
.	.	.	.	.	.	8F	.
.	.	.	.	.	.	[4B-y	.
!!LO:LB:g=original
=5	=5	=5	=5	=5	=5	=5	=5
1.r	.	1.r	.	2c	.	4B-]	.
.	.	.	.	.	.	4A	.
.	.	.	.	4r	.	4.B-y	-li
.	.	.	.	2B-y	ce-	.	.
.	.	.	.	.	.	8c	.
.	.	.	.	.	.	8dL	.
.	.	.	.	.	.	8e-iJ	.
.	.	.	.	8AL	.	[4f	.
.	.	.	.	8GJ	.	.	.
=6	=6	=6	=6	=6	=6	=6	=6
1.r	.	1.r	.	4F	.	8fL]	.
.	.	.	.	.	.	8e-iJ	.
.	.	.	.	2B-y	.	4.d	.
.	.	.	.	.	.	8B-y	.
.	.	.	.	4A	.	4c	.
*	*	*	*	*	*	*	*edit
.	.	.	.	4.B-y	-li	8B-yL	et
.	.	.	.	.	.	8c	.
.	.	.	.	.	.	8d	.
.	.	.	.	8c	.	8e-iJ	.
=7	=7	=7	=7	=7	=7	=7	=7
1.r	.	1.r	.	8dL	.	8fL	.
.	.	.	.	8e-iJ	.	8g	.
.	.	.	.	4.f	.	8a	.
.	.	.	.	.	.	8b-yJ	.
.	.	.	.	.	.	8ccL	.
.	.	.	.	8e-i	.	8ddJ	.
.	.	.	.	4.d	et	2b-y	ter-
.	.	.	.	8B-y	.	.	.
.	.	.	.	4c	.	4a	.
=8	=8	=8	=8	=8	=8	=8	=8
1.r	.	1.r	.	1B-y	ter-	1.b-y	-re,
.	.	.	.	2G	-re,	.	.
=9	=9	=9	=9	=9	=9	=9	=9
1.r	.	1.r	.	4.F	vi-	2r	.
.	.	.	.	8F	-si-	.	.
*	*	*	*	*	*	*	*Xedit
.	.	.	.	4F	-bi-	4.a	vi-
.	.	.	.	4F	-li-	.	.
.	.	.	.	.	.	8a	-si-
.	.	.	.	2F	-um	4a	-bi-
.	.	.	.	.	.	4a	-li-
!!LO:LB:g=original
=10	=10	=10	=10	=10	=10	=10	=10
1.r	.	1.r	.	4r	.	2a	-um
.	.	.	.	4F	om-	.	.
.	.	.	.	8GL	.	4.d	mo-
.	.	.	.	8A	.	.	.
.	.	.	.	8B-y	.	.	.
.	.	.	.	8cJ	.	8e	.
.	.	.	.	4A	-ni-	4f	-ni-
.	.	.	.	4G	-um	[4g	-um
=11	=11	=11	=11	=11	=11	=11	=11
*	*	*	*	*col	*	*	*
1.r	.	1.r	.	4.B-y	et	8gL]	.
.	.	.	.	.	.	8f	.
.	.	.	.	.	.	8d	.
.	.	.	.	8A	.	8B-yJ	.
*	*	*	*	*Xcol	*	*	*
.	.	.	.	8B-yL	.	4.b-y	et
.	.	.	.	8cJ	.	.	.
.	.	.	.	2d	.	.	.
.	.	.	.	.	.	8a	.
.	.	.	.	.	.	4f	in-
.	.	.	.	4G	in-	[4b-y	-vi-
=12	=12	=12	=12	=12	=12	=12	=12
1.r	.	1.r	.	4G	-vi-	4b-]	.
.	.	.	.	4.F	.	4.a	-si-
.	.	.	.	8G	.	8g	.
.	.	.	.	4B-y	.	2g	-bi-
.	.	.	.	2A	-si-	.	.
.	.	.	.	.	.	4f#i	-li-
=13	=13	=13	=13	=13	=13	=13	=13
1.r	.	1.r	.	2.G	-bi-	1g	-um.
.	.	.	.	2B-y	-li-	.	.
.	.	.	.	.	.	2r	.
.	.	.	.	8AL	.	.	.
.	.	.	.	8GJ	.	.	.
=14	=14	=14	=14	=14	=14	=14	=14
1.r	.	1.r	.	2F	-um.	2a	Et
.	.	.	.	4f	Et	4a	in
.	.	.	.	4d	in	4b-y	.
*	*	*	*	*	*	*col	*
.	.	.	.	4e	u-	4.cc	u-
.	.	.	.	4f	-num	.	.
.	.	.	.	.	.	8a	-num
*	*	*	*	*	*	*Xcol	*
!!LO:PB:g=original
=15	=15	=15	=15	=15	=15	=15	=15
*	*	*	*	*col	*	*	*
1.r	.	1.r	.	4.g	Do-	4.b-y	Do-
.	.	.	.	8f	-mi-	8b-y	-mi-
*	*	*	*	*Xcol	*	*	*
.	.	.	.	2d	-num	4b-y	-num
*	*	*	*	*	*	*	*edit
.	.	.	.	.	.	4a	Je-
.	.	.	.	4d	Je-	4.dd	-sum
.	.	.	.	[4f	-sum	.	.
.	.	.	.	.	.	8cc	.
=16	=16	=16	=16	=16	=16	=16	=16
1.r	.	1.r	.	4f]	.	4a	.
.	.	.	.	4.g	Chri-	4.b-y	Chri-
.	.	.	.	8fL	.	8a	.
.	.	.	.	8e-j	.	4.cc	.
.	.	.	.	8dJ	.	.	.
.	.	.	.	2c	.	.	.
.	.	.	.	.	.	8b-yL	.
.	.	.	.	.	.	8a	.
.	.	.	.	.	.	8gJ	.
=17	=17	=17	=17	=17	=17	=17	=17
*	*edit	*	*	*	*	*	*
2D	Fi-	1.r	.	1d	-stum,	2f	-stum,
4D	-li-	.	.	.	.	4r	.
*	*	*	*	*	*	*	*Xedit
4D	-um	.	.	.	.	2f	Fi-
4F	De-	.	.	4r	.	.	.
*	*	*	*	*	*edit	*	*
4D	.	.	.	4f	Fi-	4f	-li-
=18	=18	=18	=18	=18	=18	=18	=18
2BB-y	-i	1.r	.	4f	-li-	4d	-um
.	.	.	.	4d	-um	8fL	De-
.	.	.	.	.	.	8e-iJ	.
2.BB-y	u-	.	.	8fL	De-	8dL	.
.	.	.	.	8e-i	.	8cJ	.
.	.	.	.	8d	.	4B-y	-i
.	.	.	.	8cJ	.	.	.
.	.	.	.	4B-y	-i	4f	u-
4BB-y	-ni-	.	.	4f	u-	4d	-ni-
!!LO:LB:g=original
=19	=19	=19	=19	=19	=19	=19	=19
4BB-y	-ge-	1.r	.	4d	-ni-	4f	-ge-
4BB-y	-ni-	.	.	4f	-ge-	4d	-ni-
2.BB-y	-tum.	.	.	4d	-ni-	2B-y	-tum.
.	.	.	.	4.B-y	-tum.	.	.
.	.	.	.	.	.	4d	Et
.	.	.	.	8A	.	.	.
*	*	*	*	*	*Xedit	*	*
4C	Et	.	.	4G	Et	4e-i	ex
=20	=20	=20	=20	=20	=20	=20	=20
4D	ex	1.r	.	4F	ex	4f	.
4.E-i	Pa-	.	.	2B-y	Pa-	2g	Pa-
8D	-tre	.	.	.	.	.	.
4C	na-	.	.	4c	-tre	4a	-tre
*	*	*	*	*col	*	*	*
2BB-y	-tum	.	.	4.d	na-	4.b-y	na-
.	.	.	.	8B-y	.	8g	.
*	*	*	*	*Xcol	*	*	*
=21	=21	=21	=21	=21	=21	=21	=21
4F	an-	1.r	.	4c	-tum	4a	-tum
*	*	*	*	*	*	*	*edit
4D	-te	.	.	2d	an-	4f	an-
4G	om-	.	.	.	.	4d	-te
4E-i	-ni-	.	.	4G	-te	2g	om-
2D	-a	.	.	2A	om-	.	.
.	.	.	.	.	.	4f	-ni-
=22	=22	=22	=22	=22	=22	=22	=22
4r	.	1.r	.	4G	-ni-	4e-i	-a
4.BB-y	se-	.	.	4.B-y	-a	2d	se-
8GG	.	.	.	8A	.	.	.
4BB-y	.	.	.	2G	se-	4B-y	.
4C	-cu-	.	.	.	.	2A	-cu-
4D	.	.	.	4F#i	-cu-	.	.
!!LO:LB:g=original
=23	=23	=23	=23	=23	=23	=23	=23
*	*	*lig	*	*	*	*	*
*	*	*	*edit	*	*	*	*
1GG	-la.	[1.G	De-	1G	-la.	2G	-la.
.	.	.	.	.	.	2r	.
*	*	*	*	*	*	*	*Xedit
2C	De-	.	.	2E-i	De-	2g	De-
=24	=24	=24	=24	=24	=24	=24	=24
4BB-y	-um	1.G]	.	2D	-um	4g	-um
2GG	de	.	.	.	.	2b-y	de
.	.	.	.	4D	de	.	.
4GG	De-	.	.	4D	De-	4g	De-
2C	-o,	.	.	2E-i	-o,	2g	-o,
=25	=25	=25	=25	=25	=25	=25	=25
1BB-y	lu-	1.B-y	.	2F	lu-	2d	lu-
.	.	.	.	2.f	-men	2.d	-men
4BB-y	-men	.	.	.	.	.	.
4BB-y	de	.	.	4f	de	4d	de
*	*	*Xlig	*	*	*	*	*
=26	=26	=26	=26	=26	=26	=26	=26
*	*	*lig	*	*	*	*	*
2.E-i	lu-	1.G	-um	2.B-y	lu-	2.g	lu-
4E-i	-mi-	.	.	4B-y	-mi-	4g	-mi-
2E-i	-ne,	.	.	4.B-y	-ne,	2g	-ne,
.	.	.	.	8c	.	.	.
=27	=27	=27	=27	=27	=27	=27	=27
*	*Xedit	*	*	*	*	*	*
2D	De-	1A	.	4.d	De-	2.f	De-
.	.	.	.	8c	.	.	.
4D	-um	.	.	2A	-um	.	.
4F	.	.	.	.	.	4f	-um
*	*	*Xlig	*	*	*	*	*
4.E-i	ve-	2B-y	ve-	4.G	ve-	4.g	ve-
8D	.	.	.	8A	.	8e-i	.
!!LO:LB:g=original
=28	=28	=28	=28	=28	=28	=28	=28
2BB-y	-rum	1d	-rum	2.B-y	.	2.f	-rum
2BB-y	de	.	.	.	.	.	.
.	.	.	.	8AL	.	2b-y	de
.	.	.	.	8GJ	.	.	.
4D	De-	2d	de	4F	-rum	.	.
[4F	-o	.	.	4f	de	[4a	De-
=29	=29	=29	=29	=29	=29	=29	=29
4F]	.	2c	De-	4c	.	4a]	.
2E-X	ve-	.	.	2e-X	De-	4.g	-o
.	.	4B-y	-o	.	.	.	.
.	.	.	.	.	.	8f	.
4F	.	4A	.	2c	-o	2f	ve-
2C	-ro.	2G	ve-	.	.	.	.
.	.	.	.	4c	ve-	4e	.
=30	=30	=30	=30	=30	=30	=30	=30
*	*	*	*Xedit	*	*	*	*
4r	.	1F	-ro.	2A	-ro.	2f	-ro.
2c	Ge-	.	.	.	.	.	.
.	.	.	.	4r	.	2r	.
4A	.	.	.	4c	Ge-	.	.
2G	-ni-	2r	.	2B-y	.	4g	Ge-
.	.	.	.	.	.	[4b-y	.
=31	=31	=31	=31	=31	=31	=31	=31
2E-i	-tum,	4r	.	2e-i	-ni-	4b-]	.
.	.	4G	Ge-	.	.	2g	-ni-
2BB-y	.	2B-y	.	2d	-tum,	.	.
.	.	.	.	.	.	4f	.
*lig	*	*	*	*	*	*	*
2E-i	non	2G	-ni-	4r	.	4g	-tum,
.	.	.	.	4G	non	4b-y	non
!!LO:PB:g=original
=32	=32	=32	=32	=32	=32	=32	=32
*	*	*lig	*	*	*	*	*
*	*	*col	*	*	*	*	*
2F	.	1A	-tum,	2.c	fa-	4a	fa-
.	.	.	.	.	.	8gL	.
.	.	.	.	.	.	8fJ	.
*Xlig	*	*	*	*	*	*	*
2C	fa-	.	.	.	.	2e-j	.
.	.	.	.	4c	-ctum,	.	.
[2BB-y	-ctum,	[2B-y	.	4d	.	2d	-ctum,
.	.	.	.	[4f	con-	.	.
=33	=33	=33	=33	=33	=33	=33	=33
2BB-]	.	2B-]	.	8fL]	.	4r	.
.	.	.	.	8dJ	.	.	.
.	.	.	.	4g	-sub-	4.dd	con-
*col	*	*	*	*	*	*	*
4.B-y	con-	1d	.	4f	-stan-	.	.
*	*	*Xcol	*	*	*	*	*
.	.	.	.	.	.	8cc	.
.	.	.	.	4d	-ti-	2b-y	-sub-
8A	.	.	.	.	.	.	.
*Xcol	*	*	*	*	*	*	*
4G	-sub-	.	.	4e-j	-a-	.	.
4D	-stan-	.	.	[4f	.	[4a	-stan-
*	*	*Xlig	*	*	*	*	*
=34	=34	=34	=34	=34	=34	=34	=34
2F	-ti-	2c	non	8fL]	.	8aL]	.
.	.	.	.	8FJ	.	8g	.
.	.	.	.	4A	.	8f	.
.	.	.	.	.	.	8eJ	.
4BB-y	-a-	4B-y	fa-	4B-y	.	4d	-ti-
4E-X	.	4G	.	4c	.	2g	-a-
2D	-lem	2A	.	2d	-lem	.	.
.	.	.	.	.	.	4f#i	.
=35	=35	=35	=35	=35	=35	=35	=35
4GG	Pa-	2G	-ctum:	4r	.	2g	-lem
4.BB-y	.	.	.	4G	Pa-	.	.
.	.	2r	.	4.B-y	.	4d	.
8C	.	.	.	.	.	.	.
2D	.	.	.	.	.	4.f	Pa-
.	.	.	.	8A	.	.	.
.	.	2r	.	4F	.	.	.
.	.	.	.	.	.	8e-iL	.
[4GG	.	.	.	[4B-y	.	8d	.
.	.	.	.	.	.	8cJ	.
!!LO:LB:g=original
=36	=36	=36	=36	=36	=36	=36	=36
4GG]	.	1.r	.	4B-]	.	4B-y	.
2FF	.	.	.	4.A	.	4.c	.
.	.	.	.	8GL	.	8B-yL	.
4GG	.	.	.	8F#i	.	8A	.
.	.	.	.	8EJ	.	8GJ	.
2D	-tri	.	.	2F#i	.	2A	.
=37	=37	=37	=37	=37	=37	=37	=37
*	*	*	*edit	*	*	*	*
2r	.	1.d	per	2G	-tri:	2G	-tri:
2.D	per	.	.	4A	per	2r	.
.	.	.	.	4A	quem	.	.
.	.	.	.	4B-y	o-	2f	per
4D	quem	.	.	4A	-mni-	.	.
=38	=38	=38	=38	=38	=38	=38	=38
*	*	*lig	*	*	*	*	*
*	*	*	*	*col	*	*	*
*	*	*col	*	*	*	*	*
2D	om-	1A	quem	4.d	-a	4f	quem
*	*	*	*	*	*	*	*edit
.	.	.	.	.	.	2f	om-
.	.	.	.	8c	.	.	.
*	*	*	*	*Xcol	*	*	*
2D	-ni-	.	.	4A	.	.	.
.	.	.	.	2d	.	2f	-ni-
4BB-y	-a	[2B-y	.	.	.	.	.
*	*edit	*	*	*	*	*	*
[4E-X	fa-	.	.	[4G	.	[4g	-a
=39	=39	=39	=39	=39	=39	=39	=39
4E-]	.	2B-]	.	4G]	.	4g]	.
4G	.	.	.	4B-y	.	4g	fa-
2F	.	1c	.	8AL	.	4.a	.
*	*	*Xcol	*	*	*	*	*
.	.	.	.	8B-y	.	.	.
.	.	.	.	8c	.	.	.
.	.	.	.	8dJ	.	8b-y	.
4C	.	.	.	4e-j	.	4cc	.
[4F	.	.	.	4c	.	[4a	.
*	*	*Xlig	*	*	*	*	*
!!LO:LB:g=original
=40	=40	=40	=40	=40	=40	=40	=40
4F]	.	1d	om-	4f	.	4a]	.
4.BB-y	.	.	.	4.f	fa-	2b-y	.
8CL	.	.	.	8e-jL	.	.	.
8D	.	.	.	8d	.	4.a	.
8EJ	.	.	.	16cL	.	.	.
.	.	.	.	16B-yJJ	.	.	.
2F	.	2c	-ni-	2A	.	.	.
.	.	.	.	.	.	8gL	.
.	.	.	.	.	.	8f	.
.	.	.	.	.	.	8eJ	.
=41	=41	=41	=41	=41	=41	=41	=41
2G	-cta	2B-y	-a	8.B-yL	.	4.d	.
.	.	.	.	16AJk	.	.	.
.	.	.	.	2d	-cta	.	.
.	.	.	.	.	.	8e	.
4D	.	4A	fa-	.	.	4f	.
4E-i	.	4G	.	4c	.	2g	-cta
2D	sunt.	2A	-cta	2d	sunt.	.	.
.	.	.	.	.	.	4f#i	.
=42	=42	=42	=42	=42	=42	=42	=42
*	*Xedit	*	*	*	*	*	*
2E-i	Qui	1.G	sunt.	4.B-y	Qui	2g	sunt.
.	.	.	.	8G	.	.	.
*	*	*	*	*	*	*	*Xedit
4E-i	pro-	.	.	4G	pro-	4g	Qui
2E-i	-pter	.	.	2B-y	-pter	4g	pro-
.	.	.	.	.	.	4g	-pter
4E-i	nos	.	.	4c	nos	4g	nos
=43	=43	=43	=43	=43	=43	=43	=43
4D	ho-	1.r	.	4.d	ho-	4.f	ho-
2F	.	.	.	.	.	.	.
.	.	.	.	8c	.	8e-i	.
.	.	.	.	4A	.	4c	.
4D	-mi-	.	.	2B-y	-mi-	4d	.
2C	-nes,	.	.	.	.	2e-i	-mi-
.	.	.	.	4A	.	.	.
!!LO:LB:g=original
=44	=44	=44	=44	=44	=44	=44	=44
*	*edit	*	*	*	*	*	*
2BB-y	et	[1.d	Et	2B-y	-nes,	4d	-nes,
.	.	.	.	.	.	2f	et
4BB-y	pro-	.	.	1B-y	et	.	.
2BB-y	-pter	.	.	.	.	2f	pro-
4BB-y	no-	.	.	.	.	4f	-pter
=45	=45	=45	=45	=45	=45	=45	=45
2D	-stram	1.d]	.	2A	pro-	2f	no-
2G	sa-	.	.	4.B-y	-pter	4g	-stram
.	.	.	.	.	.	4b-y	.
.	.	.	.	8c	.	.	.
4F	-lu-	.	.	4d	.	4a	sa-
4D	-tem,	.	.	4f	no-	[4dd	-lu-
=46	=46	=46	=46	=46	=46	=46	=46
*	*	*lig	*	*	*	*	*
2r	.	2A	pro-	2e	-stram	4dd]	.
.	.	.	.	.	.	4cc#i	.
*	*Xedit	*	*	*	*	*	*
4D	et	2B-y	-pter	2d	sa-	2dd	-tem,
4G	pro-	.	.	.	.	.	.
*	*	*Xlig	*	*	*	*	*
2F	-pter	2c	no-	2f	-lu-	4a	de-
.	.	.	.	.	.	4a	-scen-
=47	=47	=47	=47	=47	=47	=47	=47
4BB-y	no-	1d	-stram	2f	-tem,	4b-y	-dit
*	*	*	*	*	*	*	*edit
2D	-stram	.	.	.	.	4.a	de
.	.	.	.	4f	de-	.	.
.	.	.	.	.	.	8f	.
4BB-y	sa-	.	.	2f	-scen-	2b-y	.
2F	-lu-	2c	sa-	.	.	.	.
.	.	.	.	4f	-dit	4a	.
!!LO:PB:g=original
=48	=48	=48	=48	=48	=48	=48	=48
1BB-y	-tem	1B-y	-lu-	2.d	de	4b-y	ce-
.	.	.	.	.	.	2f	.
.	.	.	.	4B-y	.	4d	.
2r	.	2A	-tem	2F	.	2c	-lis,
=49	=49	=49	=49	=49	=49	=49	=49
*	*	*	*	*	*edit	*	*
4.BB-y	de-	4.B-y	de-	4f	ce-	2r	.
.	.	.	.	2d	.	.	.
8C	.	8A	.	.	.	.	.
4D	.	4F	-scen-	.	.	2r	.
4E-i	.	4G	-dit	8cL	.	.	.
.	.	.	.	8B-yJ	.	.	.
2F	-scen-	2A	de	2A	-lis,	2cc	de-
=50	=50	=50	=50	=50	=50	=50	=50
2G	-dit	1G	ce-	4r	.	4b-y	.
.	.	.	.	4.B-y	de-	4.dd	-scen-
2GG	de	.	.	.	.	.	.
.	.	.	.	8c	.	8ccL	.
.	.	.	.	4d	.	8b-y	.
.	.	.	.	.	.	8aJ	.
4C	ce-	2r	.	4.e-i	-scen-	4.g	-dit
4D	.	.	.	.	.	.	.
.	.	.	.	8d	.	8f	.
=51	=51	=51	=51	=51	=51	=51	=51
8.E-iL	.	1.r	.	4c	-dit	4e-i	.
16FJk	.	.	.	.	.	.	.
4G	.	.	.	4B-y	.	4d	.
*	*	*	*	*	*	*	*Xedit
8AL	.	.	.	8AL	de	4c	de
8FJ	.	.	.	8GJ	.	.	.
*	*	*	*	*	*Xedit	*	*
4G	.	.	.	2G	ce-	4B-y	.
2D	.	.	.	.	.	2A	ce-
.	.	.	.	4F#i	.	.	.
=52	=52	=52	=52	=52	=52	=52	=52
1GGl	-lis.	1Gl	-lis.	1Gl	-lis.	1Gl	-lis.
!!LO:LB:g=original
=53||	=53||	=53||	=53||	=53||	=53||	=53||	=53||
*>B	*>B	*>B	*>B	*>B	*>B	*>B	*>B
*M2/2	*	*M2/2	*	*M2/2	*	*M2/2	*
*met(C|)	*	*met(C|)	*	*met(C|)	*	*met(C|)	*
!!section: Et incarnatus
1r	.	1r	.	1A	Et	1r	.
=54	=54	=54	=54	=54	=54	=54	=54
1r	.	1r	.	4A	in-	1r	.
.	.	.	.	4G	-car-	.	.
.	.	.	.	2A	-na-	.	.
=55	=55	=55	=55	=55	=55	=55	=55
1D	Et	1r	.	2B-y	-tus	1r	.
.	.	.	.	4.A	est	.	.
.	.	.	.	8B-y	.	.	.
=56	=56	=56	=56	=56	=56	=56	=56
4D	in-	1r	.	8cL	.	1r	.
.	.	.	.	8dJ	.	.	.
4C	-car-	.	.	4.e-j	.	.	.
2D	-na-	.	.	.	.	.	.
.	.	.	.	8d	.	.	.
.	.	.	.	[4d	de	.	.
=57	=57	=57	=57	=57	=57	=57	=57
2E-j	-tus	1r	.	4d]	.	1r	.
.	.	.	.	4c	.	.	.
4.D	est	.	.	2B-y	Spi-	.	.
8E-	.	.	.	.	.	.	.
=58	=58	=58	=58	=58	=58	=58	=58
8FL	.	1r	.	4.A	-ri-	1r	.
8GJ	.	.	.	.	.	.	.
4.A	.	.	.	.	.	.	.
.	.	.	.	8G	.	.	.
.	.	.	.	4F	.	.	.
8G	.	.	.	.	.	.	.
[4G	de	.	.	[4E	-tu	.	.
!!LO:LB:g=original
=59	=59	=59	=59	=59	=59	=59	=59
4G]	.	1r	.	8EL]	.	1r	.
.	.	.	.	8DJ	.	.	.
4F	Spi-	.	.	2d	San-	.	.
2E	-ri-	.	.	.	.	.	.
.	.	.	.	4c#i	.	.	.
=60	=60	=60	=60	=60	=60	=60	=60
2D	-tu	1r	.	2d	-cto	1f	Et
[2BB-y	San-	.	.	[2d	ex	.	.
=61	=61	=61	=61	=61	=61	=61	=61
4BB-]	.	1r	.	4d]	.	4f	in-
4C	.	.	.	4c	Ma-	4e	-car-
2D	.	.	.	2A	-ri-	2f	-na-
=62	=62	=62	=62	=62	=62	=62	=62
2E-i	.	1r	.	2G	-a	2g	-tus
2D	.	.	.	4.A	Vir-	4.f	est
.	.	.	.	8B-y	.	8g	.
=63	=63	=63	=63	=63	=63	=63	=63
4C	.	1r	.	4c	.	8aL	de
.	.	.	.	.	.	8fJ	.
2BB-y	.	.	.	2d	.	2b-y	Spi-
[4F	.	.	.	[4c	.	[4a	-ri-
=64	=64	=64	=64	=64	=64	=64	=64
4F]	.	1r	.	4c]	.	4a]	.
4G	.	.	.	4B-y	.	2g	-tu
2D	-cto	.	.	2A	-gi-	.	.
.	.	.	.	.	.	4f#i	San-
!!LO:LB:g=original
=65	=65	=65	=65	=65	=65	=65	=65
2r	.	1r	.	2G	-ne,	2g	-cto
*	*	*	*	*	*edit	*	*
[2F	ex	.	.	2c	ex	[2a	ex
=66	=66	=66	=66	=66	=66	=66	=66
2F]	.	1r	.	4c	Ma-	2a]	.
.	.	.	.	4.f	-ri-	.	.
2F	Ma-	.	.	.	.	2a	Ma-
.	.	.	.	8e-iL	.	.	.
.	.	.	.	8d	.	.	.
.	.	.	.	8cJ	.	.	.
=67	=67	=67	=67	=67	=67	=67	=67
2G	-ri-	1r	.	4B-y	-a	4.b-y	-ri-
*	*	*	*	*col	*	*	*
.	.	.	.	4.d	Vir-	.	.
.	.	.	.	.	.	8a	.
2D	-a	.	.	.	.	4f	.
.	.	.	.	8e-i	.	.	.
*	*	*	*	*Xcol	*	*	*
.	.	.	.	4f	.	[4a	-a
=68	=68	=68	=68	=68	=68	=68	=68
2E-i	Vir-	1r	.	4e-i	.	4a]	.
.	.	.	.	2d	.	2g	Vir-
2E-i	-gi-	.	.	.	.	.	.
.	.	.	.	4c	-gi-	4e-j	-gi-
=69	=69	=69	=69	=69	=69	=69	=69
[1D	-ne:	1r	.	1d	-ne:	1f	-ne:
=70	=70	=70	=70	=70	=70	=70	=70
*	*	*	*	*	*Xedit	*	*
1D]	.	1r	.	1d	et	2r	.
.	.	.	.	.	.	2f	et
=71	=71	=71	=71	=71	=71	=71	=71
1G	et	1r	.	2.d	ho-	2g	ho-
.	.	.	.	.	.	2b-y	-mo
.	.	.	.	4e	-mo	.	.
!!LO:LB:g=original
=72	=72	=72	=72	=72	=72	=72	=72
2F	ho-	1r	.	2.f	fa-	2.a	fa-
4D	-mo	.	.	.	.	.	.
[4F	fa-	.	.	4e	.	8gL	.
.	.	.	.	.	.	8fJ	.
=73	=73	=73	=73	=73	=73	=73	=73
8FL]	.	1r	.	4c	.	2a	.
8E	.	.	.	.	.	.	.
8D	.	.	.	2d	.	.	.
8CJ	.	.	.	.	.	.	.
2BB-y	.	.	.	.	.	2b-y	.
.	.	.	.	8cL	.	.	.
.	.	.	.	8B-yJ	.	.	.
=74	=74	=74	=74	=74	=74	=74	=74
2F	.	1r	.	2A	.	2cc	.
4E	.	.	.	4c	.	8ccL	.
.	.	.	.	.	.	8b-y	.
4F	.	.	.	[4d	.	8a	.
.	.	.	.	.	.	8gJ	.
=75	=75	=75	=75	=75	=75	=75	=75
4D	-ctus	1r	.	4d]	.	4f	.
4G	.	.	.	4B-y	.	2g	-ctus
2D	est.	.	.	2A	-ctus	.	.
.	.	.	.	.	.	4f#i	.
=76	=76	=76	=76	=76	=76	=76	=76
1r	.	1r	.	1G	est.	2g	est.
.	.	.	.	.	.	2r	.
=77	=77	=77	=77	=77	=77	=77	=77
2.D	Cru-	1r	.	2r	.	2.a	Cru-
.	.	.	.	[2d	Cru-	.	.
4D	-ci-	.	.	.	.	4a	-ci-
=78	=78	=78	=78	=78	=78	=78	=78
2BB-y	-fi-	1r	.	4d]	.	2b-y	-fi-
.	.	.	.	4d	-ci-	.	.
2C	-xus	.	.	2e-X	-fi-	2g	-xus
!!LO:PB:g=original
=79	=79	=79	=79	=79	=79	=79	=79
4C	e-	1r	.	2c	-xus	4g	e-
4C	-ti-	.	.	.	.	4g	-ti-
4E-i	-am	.	.	4c	e-	4g	-am
4E-i	pro	.	.	4c	-ti-	4g	pro
=80	=80	=80	=80	=80	=80	=80	=80
2F	no-	1r	.	4c	-am	2a	no-
.	.	.	.	4c	pro	.	.
2D	-bis:	.	.	2d	no-	2f	-bis:
=81	=81	=81	=81	=81	=81	=81	=81
4r	.	1r	.	2B-y	-bis:	4r	.
4D	sub	.	.	.	.	4f	sub
4E-X	Pon-	.	.	2B-y	sub	4g	Pon-
4E-i	-ti-	.	.	.	.	4g	-ti-
=82	=82	=82	=82	=82	=82	=82	=82
4C	-o	1r	.	4c	Pon-	4e-j	-o
4C	Pi-	.	.	4c	-ti-	4e-j	Pi-
2D	-la-	.	.	4A	-o	2f	-la-
.	.	.	.	4A	Pi-	.	.
=83	=83	=83	=83	=83	=83	=83	=83
4BB-y	-to	1r	.	2B-y	-la-	4d	-to
2E-i	pas-	.	.	.	.	2g	pas-
.	.	.	.	4G	-to	.	.
[4D	-sus,	.	.	4A	pas-	[4f	-sus,
=84	=84	=84	=84	=84	=84	=84	=84
4D]	.	1r	.	4F	-sus,	4f]	.
*	*edit	*	*	*	*	*	*
4BB-y	et	.	.	2B-y	et	8e-iL	.
.	.	.	.	.	.	8dJ	.
*	*	*	*	*	*	*	*edit
2F	se-	.	.	.	.	2c	et
.	.	.	.	4A	se-	.	.
!!LO:LB:g=original
=85	=85	=85	=85	=85	=85	=85	=85
4.G	-pul-	1r	.	4.B-y	-pul-	8B-yL	se-
.	.	.	.	.	.	8c	.
.	.	.	.	.	.	8d	.
8F	.	.	.	8c	.	8e-iJ	.
4D	.	.	.	4d	.	4f	.
[4C	.	.	.	[4e-i	.	[4g	-pul-
=86	=86	=86	=86	=86	=86	=86	=86
4C]	.	1r	.	4e-]	.	8gL]	.
.	.	.	.	.	.	8fJ	.
4G	.	.	.	4B-y	.	2b-y	.
2F	-tus	.	.	2c	-tus	.	.
.	.	.	.	.	.	4a	-tus
=87	=87	=87	=87	=87	=87	=87	=87
1G	est.	1r	.	1B-y	est.	2b-y	est.
.	.	.	.	.	.	2r	.
=88	=88	=88	=88	=88	=88	=88	=88
*	*	*	*	*	*	*	*Xedit
4.D	Et	1r	.	4r	.	2a	Et
.	.	.	.	2d	Et	.	.
8E	.	.	.	.	.	.	.
4F	.	.	.	.	.	4f	re-
[4G	re-	.	.	4B-y	re-	[4d	-sur-
=89	=89	=89	=89	=89	=89	=89	=89
8GL]	.	1r	.	2G	-sur-	4d]	.
8F	.	.	.	.	.	.	.
8E	.	.	.	.	.	4.g	-re-
8DJ	.	.	.	.	.	.	.
*	*	*	*	*col	*	*	*
2C	-sur-	.	.	4.c	-re-	.	.
.	.	.	.	.	.	8fL	.
.	.	.	.	.	.	8e	.
.	.	.	.	8B-y	.	8dJ	.
*	*	*	*	*Xcol	*	*	*
=90	=90	=90	=90	=90	=90	=90	=90
4.F	-re-	1r	.	8AL	.	2c	-xit
.	.	.	.	8GJ	.	.	.
.	.	.	.	2F	-xit	.	.
8E-i	.	.	.	.	.	.	.
8DL	.	.	.	.	.	4.f	ter-
8CJ	.	.	.	.	.	.	.
[4BB-y	-xit	.	.	[4B-y	ter-	.	.
.	.	.	.	.	.	8e-i	.
!!LO:LB:g=original
=91	=91	=91	=91	=91	=91	=91	=91
4BB-]	.	1r	.	8B-L]	.	8dL	.
.	.	.	.	8A	.	8cJ	.
4E-i	ter-	.	.	8G	.	4B-y	-ti-
.	.	.	.	8FJ	.	.	.
4C	.	.	.	4E-i	-ti-	4c	-a
[4BB-y	.	.	.	[4D	-a	[4d	di-
=92	=92	=92	=92	=92	=92	=92	=92
4BB-]	.	1r	.	4D]	.	4d]	.
4GG	-ti-	.	.	2G	di-	8cL	.
.	.	.	.	.	.	8B-yJ	.
2D	-a	.	.	.	.	2A	-e,
.	.	.	.	4F#i	.	.	.
=93	=93	=93	=93	=93	=93	=93	=93
2.E-i	di-	1r	.	1G	-e,	1r	.
4D	.	.	.	.	.	.	.
=94	=94	=94	=94	=94	=94	=94	=94
1BB-y	-e,	1r	.	1d	se-	2f	se-
.	.	.	.	.	.	4f	-cun-
.	.	.	.	.	.	4d	-dum
=95	=95	=95	=95	=95	=95	=95	=95
*	*	*	*	*	*	*	*edit
1r	.	1r	.	2d	-cun-	4.f	Scri-
.	.	.	.	.	.	8g	.
.	.	.	.	4c	-dum	4a	.
.	.	.	.	4B-y	Scri-	[4b-y	-ptu-
=96	=96	=96	=96	=96	=96	=96	=96
1r	.	1r	.	2c	-ptu-	4b-]	.
.	.	.	.	.	.	4a	.
.	.	.	.	2B-y	-ras,	2b-y	-ras.
!!LO:LB:g=original
=97	=97	=97	=97	=97	=97	=97	=97
*	*	*	*	*	*edit	*	*
1D	se-	1r	.	2F	se-	1r	.
.	.	.	.	4F	-cun-	.	.
.	.	.	.	4D	-dum	.	.
=98	=98	=98	=98	=98	=98	=98	=98
2D	-cun-	1r	.	4.F	Scri-	1r	.
.	.	.	.	8G	.	.	.
4C	-dum	.	.	4A	.	.	.
4BB-y	Scri-	.	.	[4B-y	-ptu-	.	.
=99	=99	=99	=99	=99	=99	=99	=99
2C	-ptu-	1r	.	4B-]	.	1r	.
.	.	.	.	4A	.	.	.
2BB-y	-ras.	.	.	2B-y	-ras.	.	.
=100	=100	=100	=100	=100	=100	=100	=100
*	*	*	*	*	*	*	*Xedit
1r	.	1r	.	1r	.	2.dd	Et
.	.	.	.	.	.	8ccL	.
.	.	.	.	.	.	8b-yJ	.
=101	=101	=101	=101	=101	=101	=101	=101
*	*	*	*	*	*Xedit	*	*
1r	.	1r	.	2.d	Et	2a	.
*	*	*	*	*	*	*lig	*
.	.	.	.	.	.	2b-y	a-
.	.	.	.	4c	.	.	.
=102	=102	=102	=102	=102	=102	=102	=102
*	*Xedit	*	*	*	*	*	*
2F	Et	1r	.	2A	.	2cc	-scen-
*	*	*	*	*	*	*Xlig	*
2D	a-	.	.	2B-y	a-	2f	-dit
!!LO:LB:g=original
=103	=103	=103	=103	=103	=103	=103	=103
2C	-scen-	1r	.	2c	-scen-	1r	.
2D	.	.	.	2F	-dit	.	.
=104	=104	=104	=104	=104	=104	=104	=104
[1BB-y	-dit	1r	.	1r	.	2.b-y	in
.	.	.	.	.	.	8aL	.
.	.	.	.	.	.	8gJ	.
=105	=105	=105	=105	=105	=105	=105	=105
2BB-]	.	1r	.	2.B-y	in	2f	ce-
*	*	*	*	*	*	*lig	*
2E-i	in	.	.	.	.	2g	-lum:
.	.	.	.	8AL	.	.	.
.	.	.	.	8GJ	.	.	.
=106	=106	=106	=106	=106	=106	=106	=106
2D	ce-	1r	.	2F	ce-	2a	.
*	*	*	*	*lig	*	*Xlig	*
2G	-lum:	.	.	2G	-lum:	4.d	se-
.	.	.	.	.	.	8e	.
=107	=107	=107	=107	=107	=107	=107	=107
2.F	se-	1r	.	2A	.	8fL	.
.	.	.	.	.	.	8gJ	.
.	.	.	.	.	.	4.a	.
*	*	*	*	*Xlig	*	*	*
.	.	.	.	4.D	se-	.	.
.	.	.	.	.	.	8g	.
4E	.	.	.	.	.	[4f	.
.	.	.	.	8E	.	.	.
=108	=108	=108	=108	=108	=108	=108	=108
4D	.	1r	.	8FL	.	4f]	.
.	.	.	.	8GJ	.	.	.
8CL	.	.	.	2A	.	8eL	.
8BB-yJ	.	.	.	.	.	8dJ	.
4AA	.	.	.	.	.	4c	.
[4C	.	.	.	4G	.	[4e	.
!!LO:PB:g=original
=109	=109	=109	=109	=109	=109	=109	=109
4C]	.	1r	.	4A	.	4e]	.
4D	.	.	.	4F	.	2d	.
2AA	.	.	.	2E	.	.	.
.	.	.	.	.	.	4c#i	.
=110	=110	=110	=110	=110	=110	=110	=110
2BB-y	-det	1r	.	2D	-det	1d	-det
4GG	ad	.	.	4r	.	.	.
[4BB-y	dex-	.	.	[4D	ad	.	.
=111	=111	=111	=111	=111	=111	=111	=111
4BB-]	.	1r	.	4D]	.	2r	.
4C	.	.	.	4E	.	.	.
2D	-te-	.	.	2F	.	[2d	ad
=112	=112	=112	=112	=112	=112	=112	=112
2GG	-ram	1r	.	2G	dex-	4d]	.
.	.	.	.	.	.	4e	.
*	*edit	*	*	*	*	*	*
2D	Pa-	.	.	2A	-te-	2f	.
=113	=113	=113	=113	=113	=113	=113	=113
4G	.	1r	.	4B-y	-ram	2g	dex-
4E	.	.	.	2c	.	.	.
2F	.	.	.	.	.	2a	-te-
*	*	*	*	*	*edit	*	*
.	.	.	.	[4d	Pa-	.	.
=114	=114	=114	=114	=114	=114	=114	=114
4G	.	1r	.	4d]	.	4b-y	-ram
2C	.	.	.	2e-i	.	2cc	.
*	*	*	*	*	*	*	*edit
[4G	.	.	.	[4d	.	[4dd	Pa-
=115	=115	=115	=115	=115	=115	=115	=115
4G]	.	1r	.	4d]	.	4dd]	.
4C	.	.	.	4c	-tris,	4ee-i	.
2G	-tris,	.	.	4.B-y	ad	4dd	.
.	.	.	.	.	.	8ccL	.
.	.	.	.	8c	.	8b-yJ	.
!!LO:LB:g=original
=116	=116	=116	=116	=116	=116	=116	=116
2r	.	1r	.	4.d	dex-	2a	-tris,
.	.	.	.	8d	-te-	.	.
2G	ad	.	.	2d	-ram	2b-y	ad
=117	=117	=117	=117	=117	=117	=117	=117
*col	*	*	*	*	*	*	*
4.G	dex-	1r	.	4r	.	4.b-y	dex-
*	*	*	*	*	*Xedit	*	*
*	*	*	*	*col	*	*	*
.	.	.	.	4.g	Pa-	.	.
8F	.	.	.	.	.	8a	.
*Xcol	*	*	*	*	*	*	*
8E-iL	.	.	.	.	.	4b-y	-te-
8DJ	.	.	.	8fL	.	.	.
*	*	*	*	*Xcol	*	*	*
4C	.	.	.	8e-i	.	[4cc	-ram
.	.	.	.	8dJ	.	.	.
=118	=118	=118	=118	=118	=118	=118	=118
*col	*	*	*	*	*	*	*
4.F	-te-	1r	.	4c	.	8ccL]	.
.	.	.	.	.	.	8b-y	.
.	.	.	.	4.f	.	8a	.
8E-i	.	.	.	.	.	8gJ	.
*Xcol	*	*	*	*	*	*	*
8DL	.	.	.	.	.	4.a	.
8CJ	.	.	.	8e-iL	.	.	.
[4D	.	.	.	8d	.	.	.
.	.	.	.	8cJ	.	8g	.
=119	=119	=119	=119	=119	=119	=119	=119
4D]	.	1r	.	2d	.	8fL	.
.	.	.	.	.	.	8eJ	.
4BB-y	.	.	.	.	.	4f	.
4C	-ram	.	.	4c	.	4e	.
*	*	*	*	*	*	*	*Xedit
4D	.	.	.	[4B-y	.	[4d	Pa-
=120	=120	=120	=120	=120	=120	=120	=120
*	*Xedit	*	*	*	*	*	*
4BB-y	Pa-	1r	.	4B-]	.	4d]	.
4C	.	.	.	8AL	.	8cL	.
.	.	.	.	8GJ	.	8B-yJ	.
2D	.	.	.	2F#i	.	2A	.
=121	=121	=121	=121	=121	=121	=121	=121
1Gl	-tris.	1r	.	1Gl	-tris.	1Gl	-tris.
!!LO:LB:g=original
=122||	=122||	=122||	=122||	=122||	=122||	=122||	=122||
*>C	*>C	*>C	*>C	*>C	*>C	*>C	*>C
*M2/2	*	*M2/2	*	*M2/2	*	*M2/2	*
*met(C|)	*	*met(C|)	*	*met(C|)	*	*met(C|)	*
!!section: Et iterum
1r	.	1r	.	1G	Et	1r	.
=123	=123	=123	=123	=123	=123	=123	=123
1G	Et	1r	.	2B-y	i-	1r	.
.	.	.	.	2B-y	-te-	.	.
=124	=124	=124	=124	=124	=124	=124	=124
2B-y	i-	1r	.	2G	-rum	1r	.
2B-y	-te-	.	.	2G	ven-	.	.
=125	=125	=125	=125	=125	=125	=125	=125
2G	-rum	1r	.	2B-y	-tu-	1r	.
2G	ven-	.	.	2B-y	-rus	.	.
=126	=126	=126	=126	=126	=126	=126	=126
2B-y	-tu-	1r	.	2E-X	est	1r	.
2B-y	-rus	.	.	2d	.	.	.
=127	=127	=127	=127	=127	=127	=127	=127
1E-i	est	1r	.	2e-X	.	1g	Cum
.	.	.	.	4r	.	.	.
.	.	.	.	[4g	cum	.	.
=128	=128	=128	=128	=128	=128	=128	=128
*	*	*	*Xedit	*	*	*	*
1r	.	1G	Cum	4g]	.	2b-y	glo-
.	.	.	.	8fL	.	.	.
.	.	.	.	8e-iJ	.	.	.
.	.	.	.	2d	.	2b-y	-ri-
!!LO:LB:g=original
=129	=129	=129	=129	=129	=129	=129	=129
1E-i	cum	2B-y	glo-	2.e-i	glo-	2g	-a
.	.	2B-y	-ri-	.	.	2g	ju-
.	.	.	.	4d	-ri-	.	.
=130	=130	=130	=130	=130	=130	=130	=130
2E-i	glo-	2G	-a	2.B-y	-a	2b-y	-di-
2E-i	-ri-	[2G	ju-	.	.	[2b-y	-ca-
.	.	.	.	[4G	ju-	.	.
=131	=131	=131	=131	=131	=131	=131	=131
1E-i	-a	2G]	.	8GL]	.	2b-]	.
.	.	.	.	8AJ	.	.	.
.	.	.	.	4B-y	.	.	.
.	.	2G	-di-	2E-i	-di-	2g	-re
=132	=132	=132	=132	=132	=132	=132	=132
*	*	*	*	*lig	*	*	*
2E-i	ju-	1G	-ca-	1e-i	-ca-	2.b-y	vi-
2E-i	-di-	.	.	.	.	.	.
.	.	.	.	.	.	4cc	.
=133	=133	=133	=133	=133	=133	=133	=133
*	*	*lig	*	*	*	*	*
1D	-ca-	1A	-re	1f	.	2.dd	-vos
.	.	.	.	.	.	4cc	.
*	*	*	*	*Xlig	*	*	*
=134	=134	=134	=134	=134	=134	=134	=134
[1G	.	[1B-y	vi-	1d	-re	4b-y	.
.	.	.	.	.	.	4a	.
.	.	.	.	.	.	2g	et
=135	=135	=135	=135	=135	=135	=135	=135
2G]	.	1B-]	.	2r	.	2b-y	mor-
*	*	*Xlig	*	*	*	*	*
2E-i	.	.	.	2G	vi-	4a	-tu-
.	.	.	.	.	.	4g	.
!!LO:PB:g=original
=136	=136	=136	=136	=136	=136	=136	=136
*	*	*lig	*	*lig	*	*	*
1D	-re	[1d	-vos	2A	.	1f	-os,
*	*	*	*	*col	*	*	*
.	.	.	.	4.B-y	.	.	.
*	*	*	*	*Xlig	*	*	*
.	.	.	.	8A	.	.	.
*	*	*	*	*Xcol	*	*	*
=137	=137	=137	=137	=137	=137	=137	=137
*	*	*	*	*	*	*	*edit
2r	.	1d]	.	2F	-vos	2a	vi-
2BB-y	vi-	.	.	4r	.	2b-y	-vos
.	.	.	.	4f	et	.	.
=138	=138	=138	=138	=138	=138	=138	=138
*	*	*	*edit	*	*	*	*
*	*	*	*	*	*	*lig	*
2F	-vos	1c	et	4.c	mor-	2a	et
.	.	.	.	8d	.	.	.
[2E-X	et	.	.	[2e-X	-tu-	[2g	mor-
*	*	*Xlig	*	*	*	*	*
=139	=139	=139	=139	=139	=139	=139	=139
*	*	*lig	*	*	*	*	*
2E-]	.	2B-y	mor-	2e-]	.	4g]	.
*	*	*	*	*	*	*Xlig	*
.	.	.	.	.	.	4f	.
2F	mor-	2A	.	[2c	-os:	[2f	-tu-
=140	=140	=140	=140	=140	=140	=140	=140
1C	-tu-	1G	-tu-	1c]	.	2f]	.
.	.	.	.	.	.	2e	.
*	*	*Xlig	*	*	*	*	*
=141	=141	=141	=141	=141	=141	=141	=141
1D	-os:	[1F	-os.	4.A	cu-	1f	-os:
.	.	.	.	8B-y	.	.	.
.	.	.	.	4A	-jus	.	.
*	*	*	*	*	*edit	*	*
.	.	.	.	[4d	re-	.	.
=142	=142	=142	=142	=142	=142	=142	=142
2F	cu-	1F]	.	4d]	.	1r	.
.	.	.	.	8cL	.	.	.
.	.	.	.	8B-yJ	.	.	.
2F	-jus	.	.	2A	-gni,	.	.
!!LO:LB:g=original
=143	=143	=143	=143	=143	=143	=143	=143
*	*	*	*	*	*	*	*Xedit
2G	re-	1r	.	4r	.	2d	cu-
.	.	.	.	2G	cu-	.	.
2C	-gni	.	.	.	.	2e	-jus
.	.	.	.	[4A	-jus	.	.
=144	=144	=144	=144	=144	=144	=144	=144
4F	non	1r	.	4A]	.	4f	re-
*	*	*	*	*	*Xedit	*	*
4E-j	.	.	.	4B-y	re-	2g	.
2C	.	.	.	2c	.	.	.
.	.	.	.	.	.	4e	-gni
=145	=145	=145	=145	=145	=145	=145	=145
2D	e-	1r	.	4A	-gni	2f	non
.	.	.	.	2B-y	non	.	.
4G	-rit	.	.	.	.	4g	e-
4F	.	.	.	4c	e-	[4a	-rit
=146	=146	=146	=146	=146	=146	=146	=146
4D	fi-	1r	.	4d	-rit	4a]	.
4G	.	.	.	4B-y	fi-	2g	fi-
2D	-nis.	.	.	2A	-nis.	.	.
.	.	.	.	.	.	4f#i	.
=147	=147	=147	=147	=147	=147	=147	=147
2E-i	Et	1r	.	2G	Et	2g	-nis.
2D	in	.	.	[2B-y	in	2r	.
=148	=148	=148	=148	=148	=148	=148	=148
*lig	*	*	*	*	*	*	*
2BB-y	Spi-	1r	.	4B-]	.	2d	Et
.	.	.	.	4A	.	.	.
2C	.	.	.	[2G	Spi-	2e-i	in
=149	=149	=149	=149	=149	=149	=149	=149
1AA	-ri-	1r	.	2G]	.	4c	Spi-
.	.	.	.	.	.	2c	-ri-
.	.	.	.	2F#i	-ri-	.	.
.	.	.	.	.	.	8B-yL	.
.	.	.	.	.	.	8AJ	.
*Xlig	*	*	*	*	*	*	*
!!LO:LB:g=original
=150	=150	=150	=150	=150	=150	=150	=150
[1GG	-tum	2G	Et	2G	-tum	4.B-y	-tum
.	.	.	.	.	.	8c	.
.	.	[2B-y	in	4D	.	2d	.
.	.	.	.	[4G	San-	.	.
=151	=151	=151	=151	=151	=151	=151	=151
1GG]	.	4B-]	.	8GL]	.	4G	San-
.	.	.	.	8AJ	.	.	.
.	.	4A	.	4.B-y	.	4.d	.
.	.	[2G	Spi-	.	.	.	.
.	.	.	.	8c	.	8c	.
.	.	.	.	4d	.	4B-y	.
=152	=152	=152	=152	=152	=152	=152	=152
2r	.	2G]	.	4e	.	8cL	.
.	.	.	.	.	.	8B-y	.
.	.	.	.	4.f	.	8A	.
.	.	.	.	.	.	8GJ	.
2D	San-	2F#j	-ri-	.	.	2A	-ctum,
.	.	.	.	8eL	.	.	.
.	.	.	.	8d	.	.	.
.	.	.	.	8cJ	.	.	.
=153	=153	=153	=153	=153	=153	=153	=153
*	*	*lig	*	*	*	*	*
2GG	.	[1G	-tum	2B-y	-ctum,	4r	.
.	.	.	.	.	.	2g	Do-
4GG	-ctum,	.	.	[2d	Do-	.	.
*	*	*	*	*	*	*col	*
[4G	Do-	.	.	.	.	[4b-y	.
=154	=154	=154	=154	=154	=154	=154	=154
8GL]	.	1G]	.	2d]	.	8b-L]	.
8AJ	.	.	.	.	.	8ccJ	.
*	*	*	*	*	*	*Xcol	*
2B-y	.	.	.	.	.	2dd	.
.	.	.	.	2B-y	.	.	.
8AL	.	.	.	.	.	8ccL	.
8GJ	.	.	.	.	.	8b-yJ	.
=155	=155	=155	=155	=155	=155	=155	=155
4.F	-mi-	1A	San-	1A	-mi-	8ccL	.
.	.	.	.	.	.	8b-y	.
.	.	.	.	.	.	8a	.
8E	.	.	.	.	.	8gJ	.
2D	-num,	.	.	.	.	4.f#i	-mi-
.	.	.	.	.	.	8e	.
*	*	*Xlig	*	*	*	*	*
!!LO:LB:g=original
=156	=156	=156	=156	=156	=156	=156	=156
*	*	*lig	*	*	*	*	*
1GG	et	[1B-y	-ctum,	1G	-num:	2.g	-num,
.	.	.	.	.	.	4f	et
=157	=157	=157	=157	=157	=157	=157	=157
2G	vi-	2B-]	.	1r	.	4d	vi-
.	.	.	.	.	.	2g	-vi-
4E	-vi-	[2c	Do-	.	.	.	.
[4F	-fi-	.	.	.	.	[4a	-fi-
=158	=158	=158	=158	=158	=158	=158	=158
8FL]	.	1c]	.	2r	.	8aL]	.
*	*	*Xlig	*	*	*	*	*
8E-jJ	.	.	.	.	.	8b-yJ	.
4C	-can-	.	.	.	.	4.cc	-can-
2E-j	-tem:	.	.	2G	qui	.	.
.	.	.	.	.	.	8b-yL	.
.	.	.	.	.	.	8a	.
.	.	.	.	.	.	8gJ	.
=159	=159	=159	=159	=159	=159	=159	=159
*	*	*lig	*	*	*	*	*
4D	qui	2d	-mi-	2A	ex	2f	-tem:
4F	ex	.	.	.	.	.	.
2E-j	Pa-	2c	.	2G	Pa-	2g	qui
*	*	*Xlig	*	*	*	*	*
=160	=160	=160	=160	=160	=160	=160	=160
*	*	*lig	*	*	*	*	*
2D	-tre	[1d	-num.	2A	-tre	2f	ex
2G	Fi-	.	.	4r	.	2b-y	Pa-
.	.	.	.	4G	Fi-	.	.
=161	=161	=161	=161	=161	=161	=161	=161
2F	-li-	1d_	.	2A	-li-	2a	-tre
2G	-o-	.	.	2B-y	-o-	2g	Fi-
!!LO:PB:g=original
=162	=162	=162	=162	=162	=162	=162	=162
2D	-que	1d]	.	2A	-que	2a	-li-
2G	pro-	.	.	2r	.	2b-y	-o-
=163	=163	=163	=163	=163	=163	=163	=163
2C	-ce-	[1c	Qui	2G	pro-	4cc	-que
.	.	.	.	.	.	2cc	pro-
2F	-dit.	.	.	4A	-ce-	.	.
.	.	.	.	4F	.	8b-yL	.
.	.	.	.	.	.	8aJ	.
=164	=164	=164	=164	=164	=164	=164	=164
*	*edit	*	*	*	*	*	*
2E	Qui	1c_	.	2G	-dit.	2g	-ce-
2F	cum	.	.	2A	Qui	2f	-dit.
=165	=165	=165	=165	=165	=165	=165	=165
2C	Pa-	1c]	.	2G	cum	4g	Qui
*	*	*Xlig	*	*	*	*	*
.	.	.	.	.	.	4g	cum
2F	-tre	.	.	2r	.	2a	Pa-
=166	=166	=166	=166	=166	=166	=166	=166
2BB-y	et	[1B-y	cum	2F	Pa-	2b-y	-tre
*	*	*	*	*	*	*	*edit
2E-i	Fi-	.	.	2G	-tre	4.b-y	et
.	.	.	.	.	.	8a	.
=167	=167	=167	=167	=167	=167	=167	=167
2D	-li-	1B-]	.	2D	et	2f	Fi-
2E-i	-o	.	.	4.G	Fi-	2g	-li-
.	.	.	.	8A	.	.	.
!!LO:LB:g=original
=168	=168	=168	=168	=168	=168	=168	=168
*	*	*lig	*	*	*	*	*
2BB-y	si-	2B-y	Pa-	8B-yL	-li-	2d	-o
.	.	.	.	8cJ	.	.	.
.	.	.	.	2d	-o	.	.
*	*	*	*	*	*	*	*Xedit
2E-i	-mul	2G	-tre	.	.	2g	si-
.	.	.	.	4c	.	.	.
*	*	*Xlig	*	*	*	*	*
=169	=169	=169	=169	=169	=169	=169	=169
*	*	*	*	*	*edit	*	*
1D	ad-	1A	et	2d	si-	2f	-mul
.	.	.	.	2d	-mul	2f	ad-
=170	=170	=170	=170	=170	=170	=170	=170
4E-i	-o-	4G	Fi-	4r	.	4g	-o-
4D	-ra-	4F	-li-	4d	ad-	4a	-ra-
4E-i	-tur,	4G	-o	4B-y	-o-	4g	-tur,
*	*	*	*	*	*	*	*edit
4D	et	4F	si-	4f	-ra-	4a	et
=171	=171	=171	=171	=171	=171	=171	=171
4E-i	con-	1G	-mul	4e-X	-tur,	4g	con-
4BB-y	-glo-	.	.	4d	et	2b-y	-glo-
2E-i	-ri-	.	.	4.B-y	con-	.	.
.	.	.	.	.	.	8aL	-ri-
.	.	.	.	8c	-glo-	8gJ	.
=172	=172	=172	=172	=172	=172	=172	=172
4D	-fi-	4A	ad-	4d	-ri-	4f	-fi-
4E-i	-ca-	4G	-o-	4c	-fi-	2g	-ca-
2D	-tur:	2A	-ra-	2d	-ca-	.	.
.	.	.	.	.	.	4f#i	.
=173	=173	=173	=173	=173	=173	=173	=173
2r	.	1G	-tur.	2d	-tur:	1g	-tur:
*	*Xedit	*	*	*	*Xedit	*	*
2GG	qui	.	.	2d	qui	.	.
!!LO:LB:g=original
=174	=174	=174	=174	=174	=174	=174	=174
2C	lo-	1r	.	2G	lo-	2r	.
*	*	*	*	*	*	*	*Xedit
2BB-y	-cu-	.	.	[2B-y	-cu-	2d	qui
=175	=175	=175	=175	=175	=175	=175	=175
2GG	-tus	1r	.	4B-]	.	2g	lo-
.	.	.	.	4c	.	.	.
*col	*	*	*	*	*	*	*
[2BB-y	est	.	.	4d	-tus	2f	-cu-
.	.	.	.	4e-i	.	.	.
=176	=176	=176	=176	=176	=176	=176	=176
4BB-]	.	1r	.	2.f	est	2d	-tus
4C	.	.	.	.	.	.	.
*Xcol	*	*	*	*	*	*	*
4D	.	.	.	.	.	[2f	est
4E-i	.	.	.	4e-i	.	.	.
=177	=177	=177	=177	=177	=177	=177	=177
2.F	.	1r	.	2.c	.	4f]	.
.	.	.	.	.	.	4g	.
.	.	.	.	.	.	4a	.
4E-i	.	.	.	4d	.	4b-y	.
=178	=178	=178	=178	=178	=178	=178	=178
2C	per	1r	.	4.e-i	per	2cc	.
.	.	.	.	8d	.	.	.
2E-i	Pro-	.	.	8cL	.	2g	per
.	.	.	.	8B-yJ	.	.	.
.	.	.	.	[4c	Pro-	.	.
=179	=179	=179	=179	=179	=179	=179	=179
4F	-phe-	1r	.	4c]	.	4a	Pro-
4D	.	.	.	2B-y	-phe-	4b-y	.
2C	.	.	.	.	.	2cc	-phe-
.	.	.	.	4A	.	.	.
!!LO:LB:g=original
=180	=180	=180	=180	=180	=180	=180	=180
*	*	*lig	*Xedit	*	*	*	*
1BB-y	-tas.	[1d	Et	1B-y	-tas.	1f	-tas.
=181	=181	=181	=181	=181	=181	=181	=181
4.BB-y	Et	1d_	.	2r	.	2b-y	Et
8C	.	.	.	.	.	.	.
4.D	u-	.	.	2f	Et	2a	u-
8E-j	.	.	.	.	.	.	.
=182	=182	=182	=182	=182	=182	=182	=182
4F	-nam	1d_	.	4f	u-	4a	-nam
2G	san-	.	.	4d	-nam	2b-y	san-
.	.	.	.	4.B-y	san-	.	.
8FL	.	.	.	.	.	8aL	.
8E-jJ	.	.	.	8c	.	8gJ	.
=183	=183	=183	=183	=183	=183	=183	=183
1D	-ctam	1d]	.	4.d	-ctam	2f	-ctam
.	.	.	.	8e	.	.	.
.	.	.	.	4f	.	4r	.
.	.	.	.	8eL	.	4d	ca-
.	.	.	.	8dJ	.	.	.
=184	=184	=184	=184	=184	=184	=184	=184
1r	.	[1A	.	4c	.	4e	-tho-
.	.	.	.	4d	ca-	4f	.
.	.	.	.	4c	.	4e	.
.	.	.	.	[4f	-tho-	[4a	.
=185	=185	=185	=185	=185	=185	=185	=185
1r	.	1A_	.	4f]	.	4a]	.
.	.	.	.	8eL	.	8gL	.
.	.	.	.	8dJ	.	8fJ	.
.	.	.	.	4c	.	4e	.
.	.	.	.	4d	.	4f	.
!!LO:PB:g=original
=186	=186	=186	=186	=186	=186	=186	=186
1r	.	1A]	.	4c	.	4e	.
*	*	*Xlig	*	*	*	*	*
.	.	.	.	2d	.	4d	.
.	.	.	.	.	.	2e	-li-
.	.	.	.	4c#i	-li-	.	.
=187	=187	=187	=187	=187	=187	=187	=187
2D	et	2r	.	2d	-cam	2d	-cam
*	*	*	*Xedit	*	*	*	*
2E-i	.	2B-y	u-	2r	.	2g	et
=188	=188	=188	=188	=188	=188	=188	=188
*	*	*lig	*	*	*	*	*
2C	a-	1c	-nam	2G	et	4g	a-
.	.	.	.	.	.	4g	-po-
2E-i	-po-	.	.	4G	a-	4g	-sto-
.	.	.	.	4G	-po-	4g	-li-
=189	=189	=189	=189	=189	=189	=189	=189
*	*	*col	*	*	*	*	*
4.D	-sto-	2.d	.	4A	-sto-	4.f	-cam
.	.	.	.	4B-y	-li-	.	.
8E-i	.	.	.	.	.	8g	.
4F	.	.	.	4A	-cam	4a	.
*	*	*Xlig	*	*	*	*	*
4BB-y	-li-	4B-y	san-	[4d	Ec-	[4b-y	Ec-
*	*	*Xcol	*	*	*	*	*
=190	=190	=190	=190	=190	=190	=190	=190
2F	-cam	2c	-ctam	8dL]	.	4b-]	.
.	.	.	.	8eJ	.	.	.
.	.	.	.	4.f	-cle-	4.a	-cle-
2F	Ec-	[2d	ca-	.	.	.	.
.	.	.	.	8eL	.	8gL	.
.	.	.	.	8d	-si-	8f	.
.	.	.	.	8cJ	.	8eJ	.
=191	=191	=191	=191	=191	=191	=191	=191
2G	-cle-	4d]	.	1B-y	-am.	2d	.
.	.	4c	.	.	.	.	.
2GG	.	2B-y	-tho-	.	.	[2g	.
!!LO:LB:g=original
=192	=192	=192	=192	=192	=192	=192	=192
1D	-si-	1A	-li-	2r	.	2g]	.
.	.	.	.	2d	Con-	2f#i	-si-
=193	=193	=193	=193	=193	=193	=193	=193
1GG	-am.	1G	-cam	2d	-fi-	1g	-am.
.	.	.	.	2d	-te-	.	.
=194	=194	=194	=194	=194	=194	=194	=194
2D	Con-	1r	.	1A	-or	1r	.
2D	-fi-	.	.	.	.	.	.
=195	=195	=195	=195	=195	=195	=195	=195
2D	-te-	1r	.	2B-y	u-	1r	.
[2AA	-or	.	.	2c	-num	.	.
=196	=196	=196	=196	=196	=196	=196	=196
2AA]	.	1r	.	2c	ba-	1r	.
2BB-y	u-	.	.	2d	.	.	.
=197	=197	=197	=197	=197	=197	=197	=197
2C	-num	1r	.	4c	.	1r	.
*	*	*	*	*col	*	*	*
.	.	.	.	4.c	-pti-	.	.
2C	ba-	.	.	.	.	.	.
.	.	.	.	8B-yL	.	.	.
*	*	*	*	*Xcol	*	*	*
.	.	.	.	8A	.	.	.
.	.	.	.	8GJ	.	.	.
=198	=198	=198	=198	=198	=198	=198	=198
1D	-pti-	1r	.	4F	.	1r	.
.	.	.	.	2B-y	.	.	.
.	.	.	.	8AL	.	.	.
.	.	.	.	8GJ	.	.	.
!!LO:LB:g=original
=199	=199	=199	=199	=199	=199	=199	=199
2C	.	1r	.	8AL	.	1r	.
.	.	.	.	8G	.	.	.
.	.	.	.	8F	.	.	.
.	.	.	.	8EJ	.	.	.
2BB-y	.	.	.	4.D	.	.	.
.	.	.	.	8E	.	.	.
=200	=200	=200	=200	=200	=200	=200	=200
1AA	.	1r	.	4F	.	1r	.
.	.	.	.	2G	.	.	.
.	.	.	.	4F#i	.	.	.
=201	=201	=201	=201	=201	=201	=201	=201
1GG	-sma	1r	.	1G	-sma	2dd	In
.	.	.	.	.	.	2dd	re-
=202	=202	=202	=202	=202	=202	=202	=202
1r	.	2d	In	1r	.	2dd	-mis-
.	.	2d	re-	.	.	2a	-si-
=203	=203	=203	=203	=203	=203	=203	=203
1r	.	2d	-mis-	1r	.	2b-y	-o-
.	.	2A	-si-	.	.	2cc	-nem
=204	=204	=204	=204	=204	=204	=204	=204
1r	.	2A	-o-	1r	.	8ccL	pec-
.	.	.	.	.	.	8b-y	.
.	.	.	.	.	.	8a	.
.	.	.	.	.	.	8gJ	.
.	.	2B-y	-nem	.	.	4f	.
.	.	.	.	.	.	[4g	-ca-
=205	=205	=205	=205	=205	=205	=205	=205
1r	.	2c	pec-	1r	.	8gL]	.
.	.	.	.	.	.	8f	.
.	.	.	.	.	.	8e-j	.
.	.	.	.	.	.	8dJ	.
.	.	2c	-ca-	.	.	2e-j	.
!!LO:LB:g=original
=206	=206	=206	=206	=206	=206	=206	=206
2r	.	1d	-to-	1r	.	4d	-to-
.	.	.	.	.	.	4.f	.
*	*edit	*	*	*	*	*	*
4.D	pec-	.	.	.	.	.	.
.	.	.	.	.	.	8g	.
.	.	.	.	.	.	[4a	.
8E	.	.	.	.	.	.	.
=207	=207	=207	=207	=207	=207	=207	=207
2F	-ca-	2c	.	2f	pec-	8aL]	.
.	.	.	.	.	.	8b-y	.
.	.	.	.	.	.	8cc	.
.	.	.	.	.	.	8ddJ	.
4BB-y	.	4d	.	4f	-ca-	4b-y	.
[4F	-to-	[4c	.	[4f	-to-	[4a	.
=208	=208	=208	=208	=208	=208	=208	=208
4F]	.	4c]	.	4f]	.	4a]	.
4G	.	4B-y	.	2.d	.	2g	.
2D	.	2A	.	.	.	.	.
.	.	.	.	.	.	4f#i	.
=209	=209	=209	=209	=209	=209	=209	=209
2GG	-rum.	1G	-rum.	1B-y	-rum.	2g	-rum.
*	*Xedit	*	*	*	*	*	*
2GG	Et	.	.	.	.	2r	.
=210	=210	=210	=210	=210	=210	=210	=210
2GG	ex-	1r	.	2B-y	Et	1g	Et
[2BB-y	-spe-	.	.	2B-y	ex-	.	.
=211	=211	=211	=211	=211	=211	=211	=211
2BB-]	.	2r	.	1d	-spe-	2g	ex-
2GG	-cto	[2G	Et	.	.	[2b-y	-spe-
=212	=212	=212	=212	=212	=212	=212	=212
2G	re-	2G]	.	2d	-cto	2b-]	.
[2E-i	-sur-	2G	ex-	[2e-i	re-	[2g	-cto
!!LO:PB:g=original
=213	=213	=213	=213	=213	=213	=213	=213
4E-]	.	1B-y	-spe-	2e-]	.	2g]	.
4D	.	.	.	.	.	.	.
2BB-y	.	.	.	2d	.	2f	re-
=214	=214	=214	=214	=214	=214	=214	=214
2.E-i	-re-	2G	-cto	2e-i	-sur-	2g	-sur-
.	.	2G	re-	[2g	-re-	[2b-y	-re-
4D	-cti-	.	.	.	.	.	.
=215	=215	=215	=215	=215	=215	=215	=215
2C	-o-	2G	-sur-	4g]	.	4b-]	.
.	.	.	.	4f	-cti-	4cc	-cti-
[2BB-y	-nem	[2B-y	-re-	2d	-o-	[2dd	-o-
=216	=216	=216	=216	=216	=216	=216	=216
1BB-]	.	4B-]	.	1f	-nem	4dd]	.
.	.	4c	-cti-	.	.	4cc	.
.	.	2d	-o-	.	.	2b-y	-nem
=217	=217	=217	=217	=217	=217	=217	=217
2F	mor-	1c	-nem	2c	mor-	2a	mor-
[2E-X	-tu-	.	.	[2e-X	-tu-	[2g	-tu-
=218	=218	=218	=218	=218	=218	=218	=218
2E-]	.	2B-y	mor-	2e-]	.	4g]	.
.	.	.	.	.	.	4f	.
2F	.	2A	-tu-	[2c	-o-	[2f	-o-
=219	=219	=219	=219	=219	=219	=219	=219
1C	-o-	1G	-o-	1c]	.	2f]	.
.	.	.	.	.	.	2e	.
!!LO:LB:g=original
=220	=220	=220	=220	=220	=220	=220	=220
*M3/2	*	*M3/2	*	*M3/2	*	*M3/2	*
*met(3)	*	*met(3)	*	*met(3)	*	*met()	*
!!LO:TX:t=[whole] = [whole-dot]
!!LO:TX:a:t=[3]
1.D	-rum.	1.F	-rum.	1A	-rum.	1f	-rum.
.	.	.	.	2A	Et	2f	Et
=221	=221	=221	=221	=221	=221	=221	=221
*	*	*	*	*lig	*	*	*
1.r	.	1.r	.	2G	vi-	2g	vi-
.	.	.	.	1B-y	.	1d	-tam
*	*	*	*	*Xlig	*	*	*
=222	=222	=222	=222	=222	=222	=222	=222
2GG	Et	1.r	.	1G	-tam	1.r	.
1BB-y	vi-	.	.	.	.	.	.
.	.	.	.	2F	ven-	.	.
=223	=223	=223	=223	=223	=223	=223	=223
1GG	-tam	1.r	.	1G	-tu-	2g	ven-
.	.	.	.	.	.	1b-y	.
2G	ven-	.	.	2B-y	-ri	.	.
=224	=224	=224	=224	=224	=224	=224	=224
*	*	*	*edit	*	*	*	*
2.E-i	-tu-	2G	Et	1e-X	se-	1g	-tu-
.	.	1B-y	vi-	.	.	.	.
4D	.	.	.	.	.	.	.
2BB-y	.	.	.	2d	.	2f	-ri
=225	=225	=225	=225	=225	=225	=225	=225
*	*	*	*	*	*	*lig	*
1E-i	.	1G	-tam	2e-i	.	2g	se-
.	.	.	.	2g	.	2b-y	.
*	*	*	*	*	*	*Xlig	*
2C	.	2A	ven-	2e-i	.	2cc	.
=226	=226	=226	=226	=226	=226	=226	=226
*	*	*lig	*	*	*	*	*
2BB-y	-ri	2B-y	-tu-	1d	.	2.dd	.
2B-y	se-	1d	.	.	.	.	.
.	.	.	.	.	.	4cc	.
2G	.	.	.	2g	.	2b-y	.
*	*	*Xlig	*	*	*	*	*
!!LO:LB:g=original
=227	=227	=227	=227	=227	=227	=227	=227
*lig	*	*	*	*lig	*	*	*
*col	*	*	*	*	*	*	*
2A	-cu-	1c	-ri	2c	.	2cc	.
2F	.	.	.	2f	.	2.a	.
*Xlig	*	*	*	*Xlig	*	*	*
2G	.	2B-y	se-	2B-y	.	.	.
.	.	.	.	.	.	4g	.
=228	=228	=228	=228	=228	=228	=228	=228
*	*	*lig	*	*	*	*	*
2E-i	.	2G	-cu-	2c	-cu-	1g	-cu-
1D	-li.	1A	.	1d	-li.	.	.
*Xcol	*	*	*	*	*	*	*
.	.	.	.	.	.	2f#i	.
*	*	*Xlig	*	*	*	*	*
=229	=229	=229	=229	=229	=229	=229	=229
2.E-X	A-	1.G	-li.	1.r	.	[1.g	-li.
4D	.	.	.	.	.	.	.
4C	.	.	.	.	.	.	.
4BB-y	.	.	.	.	.	.	.
=230	=230	=230	=230	=230	=230	=230	=230
*lig	*	*	*	*	*	*	*
2C	.	1.r	.	2.G	A-	2g_	.
2E-i	.	.	.	.	.	2g]	.
.	.	.	.	4A	.	.	.
*Xlig	*	*	*	*	*	*	*
2D	.	.	.	2B-y	.	2r	.
=231	=231	=231	=231	=231	=231	=231	=231
2.C	.	1.r	.	1c	.	1.r	.
4D	.	.	.	.	.	.	.
2E-i	.	.	.	2B-y	.	.	.
=232	=232	=232	=232	=232	=232	=232	=232
1F	.	1.r	.	2.A	.	2.c	A-
.	.	.	.	4B-y	.	4d	.
2E-i	.	.	.	2c	.	2e-i	.
=233	=233	=233	=233	=233	=233	=233	=233
2.D	.	1.r	.	1d	.	2.f	.
4E-i	.	.	.	.	.	4g	.
2F	.	.	.	2c	.	2a	.
!!LO:LB:g=original
=234	=234	=234	=234	=234	=234	=234	=234
2.G	.	1.r	.	2.B-y	.	2.d	.
4F	.	.	.	4c	.	4e-i	.
2D	.	.	.	2d	.	2f	.
=235	=235	=235	=235	=235	=235	=235	=235
1C	.	1.r	.	1e-X	.	2.g	.
.	.	.	.	.	.	4a	.
2G	.	.	.	2d	.	2b-y	.
=236	=236	=236	=236	=236	=236	=236	=236
1A	.	1.r	.	1c	.	2.cc	.
.	.	.	.	.	.	4b-y	.
2G	.	.	.	2e-j	.	4a	.
.	.	.	.	.	.	4g	.
=237	=237	=237	=237	=237	=237	=237	=237
1F	.	1.r	.	1f	.	2.a	.
.	.	.	.	.	.	4b-y	.
2C	.	.	.	2e-j	.	4cc	.
.	.	.	.	.	.	4dd	.
=238	=238	=238	=238	=238	=238	=238	=238
2G	.	1.r	.	1d	.	2b-y	.
1F	.	.	.	.	.	2.a	.
.	.	.	.	2c	.	.	.
.	.	.	.	.	.	4g	.
=239	=239	=239	=239	=239	=239	=239	=239
2G	.	1.r	.	2B-y	.	1g	.
1D	.	.	.	1A	.	.	.
.	.	.	.	.	.	2f#i	.
=240	=240	=240	=240	=240	=240	=240	=240
[1.GGl	-men.	1.r	.	[1.Gl	-men.	[1.gl	-men.
=241	=241	=241	=241	=241	=241	=241	=241
*	*	*	*Xedit	*	*	*	*
*	*	*	*v:[A]-	*	*	*	*
1.GG]	.	1.Gl	-men.	1.G]	.	1.g]	.
==	==	==	==	==	==	==	==
*-	*-	*-	*-	*-	*-	*-	*-
!!!system-decoration: [*]
!!!RDF**kern: j = editorial accidental, optional, paren up
!!!RDF**kern: i = editorial accidental
!!!RDF**kern: l = terminal breve
!!!PTL: Gaspar van Weerbeke: Collected Works. II. Masses, Part 2
!!!ISBN: 978-1-59551-518-6
!!!PPR: American Institute of Musicology
!!!PC#: Corpus Mensurabilis Musicae 106/II.2
!!!PDT: 2018
!!!PED: Kolb, Paul
!!!YEC: Copyright 2016, Kolb, Paul
!!!YEM: CC-BY-NC 4.0 (https://creativecommons.org/licenses/by-nc/4.0/legalcode)
!!!EED: Zybina, Karina
!!!EEV: 2021/09/30
!!!title: @{OPR} &mdash; @{OTL}
!!!muse2ps: C^@{COM}^i2I150v90,90,90,120c122z18l2700t130
